X: 38980
T: Swallow's Tail, The
R: reel
M: 4/4
K: Eminor
|:E3 G E~A,3|EA,FA, [G3G,3] A|GEDB, DG, (3G,G,G,|(3B,A,G, B,D G2 FG|
~E3 G E~A,3|EA,FA, G3 A|(3BdB GB AGED|EGDB, A,B,CD:|
|:EAAG AGED|B,DEF G3 A|GEDB, DG, (3G,G,G,|(3B,A,G, B,D G2 FG|
EAAG AGED|B,DEF G3 A|(3BdB GB AGED|EGDB, A,B,CD:|
|:e3 g eA (3AAA|eAfA g3 a|gedB dG (3GGG|(3BAG Bd g2 fg|
e3 g eA (3AAA|eAfA g3 a|bggb aged|(3efg dB ABcd:|
|:eaag aged|(3Bcd ef ~g3 a|gedB dG (3GGG|(3BAG Bd g2 fg|
eaag aged|(3Bcd ef ~g3 a|bggb aged|(3efg dB ABcd:|

